X: 22416
T: Ladies Of France, The
R: jig
M: 6/8
K: Adorian
gf|:eAA AGE|GAG GAB|cBc ABc|ded dgf|
eAA AGE|GAG GAB|cde dcB|1 cAA Agf:|2 cAA Afg||
gef gef|gef g2f|eaa eaa|eaa aga|
bge efg|fed def|gfe fdB|1 BAA Afg:|2 BAA Agf||

